app/assets/images/icons/active/bus.svg

<svg width="32" height="232" viewBox="0 0 32 232" xmlns="http://www.w3.org/2000/svg" xmlns:sketch="http://www.bohemiancoding.com/sketch/ns"><title>bus</title><g sketch:type="MSPage" fill="none"><path d="M23.756 124h-15.512c-1.516 0-2.744 1.108-2.744 2.477v16.904c0 .828.447 1.557 1.137 1.994-.02.563.052 1.096.052 1.356v.103c0 1.197.991 2.166 2.213 2.166 1.217 0 2.211-.969 2.211-2.166v-.103l.055-.864h9.789l.053.864v.103c0 1.197.992 2.166 2.213 2.166 1.222 0 2.213-.969 2.213-2.166v-.103c0-.272.087-.844.05-1.438.616-.453 1.014-1.148 1.014-1.912v-16.904c0-1.369-1.232-2.477-2.744-2.477zm-15.865 3.733c0-.682.613-1.233 1.371-1.233h13.474c.756 0 1.371.551 1.371 1.233v9.531c0 .68-.615 1.242-1.371 1.242h-13.474c-.758 0-1.371-.562-1.371-1.242v-9.531zm1.892 16.367c-1.162 0-2.099-.945-2.099-2.109 0-1.157.937-2.11 2.099-2.11 1.168 0 2.104.953 2.104 2.11 0 1.164-.936 2.109-2.104 2.109zm12.34 0c-1.166 0-2.109-.945-2.109-2.109 0-1.157.943-2.11 2.109-2.11 1.15 0 2.104.953 2.104 2.11 0 1.164-.954 2.109-2.104 2.109zm0 0" fill="#206FAC" sketch:type="MSShapeGroup"/><path d="M23.756 84h-15.512c-1.516 0-2.744 1.108-2.744 2.477v16.904c0 .828.447 1.557 1.137 1.994-.02.563.052 1.096.052 1.356v.103c0 1.197.991 2.166 2.213 2.166 1.217 0 2.211-.969 2.211-2.166v-.103l.055-.864h9.789l.053.864v.103c0 1.197.992 2.166 2.213 2.166 1.222 0 2.213-.969 2.213-2.166v-.103c0-.272.087-.844.05-1.438.616-.453 1.014-1.148 1.014-1.912v-16.904c0-1.369-1.232-2.477-2.744-2.477zm-15.865 3.733c0-.682.613-1.233 1.371-1.233h13.474c.756 0 1.371.551 1.371 1.233v9.531c0 .68-.615 1.242-1.371 1.242h-13.474c-.758 0-1.371-.562-1.371-1.242v-9.531zm1.892 16.367c-1.162 0-2.099-.945-2.099-2.109 0-1.157.937-2.11 2.099-2.11 1.168 0 2.104.953 2.104 2.11 0 1.164-.936 2.109-2.104 2.109zm12.34 0c-1.166 0-2.109-.945-2.109-2.109 0-1.157.943-2.11 2.109-2.11 1.15 0 2.104.953 2.104 2.11 0 1.164-.954 2.109-2.104 2.109zm0 0" fill="#fff" sketch:type="MSShapeGroup"/><path d="M23.756 44h-15.512c-1.516 0-2.744 1.108-2.744 2.477v16.904c0 .828.447 1.557 1.137 1.994-.02.563.052 1.096.052 1.356v.103c0 1.197.991 2.166 2.213 2.166 1.217 0 2.211-.969 2.211-2.166v-.103l.055-.864h9.789l.053.864v.103c0 1.197.992 2.166 2.213 2.166 1.222 0 2.213-.969 2.213-2.166v-.103c0-.272.087-.844.05-1.438.616-.453 1.014-1.148 1.014-1.912v-16.904c0-1.369-1.232-2.477-2.744-2.477zm-15.865 3.733c0-.682.613-1.233 1.371-1.233h13.474c.756 0 1.371.551 1.371 1.233v9.531c0 .68-.615 1.242-1.371 1.242h-13.474c-.758 0-1.371-.562-1.371-1.242v-9.531zm1.892 16.367c-1.162 0-2.099-.945-2.099-2.109 0-1.157.937-2.11 2.099-2.11 1.168 0 2.104.953 2.104 2.11 0 1.164-.936 2.109-2.104 2.109zm12.34 0c-1.166 0-2.109-.945-2.109-2.109 0-1.157.943-2.11 2.109-2.11 1.15 0 2.104.953 2.104 2.11 0 1.164-.954 2.109-2.104 2.109zm0 0" fill="#67737B" sketch:type="MSShapeGroup"/><path d="M23.756 4h-15.512c-1.516 0-2.744 1.108-2.744 2.477v16.904c0 .828.447 1.557 1.137 1.994-.02.563.052 1.096.052 1.356v.103c0 1.197.991 2.166 2.213 2.166 1.217 0 2.211-.969 2.211-2.166v-.103l.055-.864h9.789l.053.864v.103c0 1.197.992 2.166 2.213 2.166 1.222 0 2.213-.969 2.213-2.166v-.103c0-.272.087-.844.05-1.438.616-.453 1.014-1.148 1.014-1.912v-16.904c0-1.369-1.232-2.477-2.744-2.477zm-15.865 3.733c0-.682.613-1.233 1.371-1.233h13.474c.756 0 1.371.551 1.371 1.233v9.531c0 .68-.615 1.242-1.371 1.242h-13.474c-.758 0-1.371-.562-1.371-1.242v-9.531zm1.892 16.367c-1.162 0-2.099-.945-2.099-2.109 0-1.157.937-2.11 2.099-2.11 1.168 0 2.104.953 2.104 2.11 0 1.164-.936 2.109-2.104 2.109zm12.34 0c-1.166 0-2.109-.945-2.109-2.109 0-1.157.943-2.11 2.109-2.11 1.15 0 2.104.953 2.104 2.11 0 1.164-.954 2.109-2.104 2.109zm0 0" fill="#3A434E" sketch:type="MSShapeGroup"/></g></svg>

<?xml version="1.0" encoding="UTF-8" standalone="no"?>
<svg width="32px" height="232px" viewBox="0 0 32 232" version="1.1" xmlns="http://www.w3.org/2000/svg" xmlns:xlink="http://www.w3.org/1999/xlink" xmlns:sketch="http://www.bohemiancoding.com/sketch/ns">
    <title>bus</title>
    <description>Created with Sketch (http://www.bohemiancoding.com/sketch)</description>
    <defs></defs>
    <g id="Transport" stroke="none" stroke-width="1" fill="none" fill-rule="evenodd" sketch:type="MSPage">
        <path d="M23.756,124 L8.244,124 C6.728,124 5.5,125.108 5.5,126.477 L5.5,143.381 C5.5,144.209 5.947,144.938 6.637,145.375 C6.617,145.938 6.689,146.471 6.689,146.731 L6.689,146.834 C6.689,148.031 7.68,149 8.902,149 C10.119,149 11.113,148.031 11.113,146.834 L11.113,146.731 C11.113,146.547 11.15,146.223 11.168,145.867 L20.957,145.867 C20.971,146.223 21.01,146.547 21.01,146.731 L21.01,146.834 C21.01,148.031 22.002,149 23.223,149 C24.445,149 25.436,148.031 25.436,146.834 L25.436,146.731 C25.436,146.459 25.523,145.887 25.486,145.293 C26.102,144.84 26.5,144.145 26.5,143.381 L26.5,126.477 C26.5,125.108 25.268,124 23.756,124 L23.756,124 L23.756,124 L23.756,124 Z M7.891,127.733 C7.891,127.051 8.504,126.5 9.262,126.5 L22.736,126.5 C23.492,126.5 24.107,127.051 24.107,127.733 L24.107,137.264 C24.107,137.944 23.492,138.506 22.736,138.506 L9.262,138.506 C8.504,138.506 7.891,137.944 7.891,137.264 L7.891,127.733 L7.891,127.733 L7.891,127.733 L7.891,127.733 Z M9.783,144.1 C8.621,144.1 7.684,143.155 7.684,141.991 C7.684,140.834 8.621,139.881 9.783,139.881 C10.951,139.881 11.887,140.834 11.887,141.991 C11.887,143.155 10.951,144.1 9.783,144.1 L9.783,144.1 L9.783,144.1 L9.783,144.1 Z M22.123,144.1 C20.957,144.1 20.014,143.155 20.014,141.991 C20.014,140.834 20.957,139.881 22.123,139.881 C23.273,139.881 24.227,140.834 24.227,141.991 C24.227,143.155 23.273,144.1 22.123,144.1 L22.123,144.1 Z M22.123,144.1" id="bus--white" fill="#206FAC" sketch:type="MSShapeGroup"></path>
        <path d="M23.756,84 L8.244,84 C6.728,84 5.5,85.108 5.5,86.477 L5.5,103.381 C5.5,104.209 5.947,104.938 6.637,105.375 C6.617,105.938 6.689,106.471 6.689,106.731 L6.689,106.834 C6.689,108.031 7.68,109 8.902,109 C10.119,109 11.113,108.031 11.113,106.834 L11.113,106.731 C11.113,106.547 11.15,106.223 11.168,105.867 L20.957,105.867 C20.971,106.223 21.01,106.547 21.01,106.731 L21.01,106.834 C21.01,108.031 22.002,109 23.223,109 C24.445,109 25.436,108.031 25.436,106.834 L25.436,106.731 C25.436,106.459 25.523,105.887 25.486,105.293 C26.102,104.84 26.5,104.145 26.5,103.381 L26.5,86.477 C26.5,85.108 25.268,84 23.756,84 L23.756,84 L23.756,84 L23.756,84 Z M7.891,87.733 C7.891,87.051 8.504,86.5 9.262,86.5 L22.736,86.5 C23.492,86.5 24.107,87.051 24.107,87.733 L24.107,97.264 C24.107,97.944 23.492,98.506 22.736,98.506 L9.262,98.506 C8.504,98.506 7.891,97.944 7.891,97.264 L7.891,87.733 L7.891,87.733 L7.891,87.733 L7.891,87.733 Z M9.783,104.1 C8.621,104.1 7.684,103.155 7.684,101.991 C7.684,100.834 8.621,99.881 9.783,99.881 C10.951,99.881 11.887,100.834 11.887,101.991 C11.887,103.155 10.951,104.1 9.783,104.1 L9.783,104.1 L9.783,104.1 L9.783,104.1 Z M22.123,104.1 C20.957,104.1 20.014,103.155 20.014,101.991 C20.014,100.834 20.957,99.881 22.123,99.881 C23.273,99.881 24.227,100.834 24.227,101.991 C24.227,103.155 23.273,104.1 22.123,104.1 L22.123,104.1 Z M22.123,104.1" id="bus--subdued-grey" fill="#FFFFFF" sketch:type="MSShapeGroup"></path>
        <path d="M23.756,44 L8.244,44 C6.728,44 5.5,45.108 5.5,46.477 L5.5,63.381 C5.5,64.209 5.947,64.938 6.637,65.375 C6.617,65.938 6.689,66.471 6.689,66.731 L6.689,66.834 C6.689,68.031 7.68,69 8.902,69 C10.119,69 11.113,68.031 11.113,66.834 L11.113,66.731 C11.113,66.547 11.15,66.223 11.168,65.867 L20.957,65.867 C20.971,66.223 21.01,66.547 21.01,66.731 L21.01,66.834 C21.01,68.031 22.002,69 23.223,69 C24.445,69 25.436,68.031 25.436,66.834 L25.436,66.731 C25.436,66.459 25.523,65.887 25.486,65.293 C26.102,64.84 26.5,64.145 26.5,63.381 L26.5,46.477 C26.5,45.108 25.268,44 23.756,44 L23.756,44 L23.756,44 L23.756,44 Z M7.891,47.733 C7.891,47.051 8.504,46.5 9.262,46.5 L22.736,46.5 C23.492,46.5 24.107,47.051 24.107,47.733 L24.107,57.264 C24.107,57.944 23.492,58.506 22.736,58.506 L9.262,58.506 C8.504,58.506 7.891,57.944 7.891,57.264 L7.891,47.733 L7.891,47.733 L7.891,47.733 L7.891,47.733 Z M9.783,64.1 C8.621,64.1 7.684,63.155 7.684,61.991 C7.684,60.834 8.621,59.881 9.783,59.881 C10.951,59.881 11.887,60.834 11.887,61.991 C11.887,63.155 10.951,64.1 9.783,64.1 L9.783,64.1 L9.783,64.1 L9.783,64.1 Z M22.123,64.1 C20.957,64.1 20.014,63.155 20.014,61.991 C20.014,60.834 20.957,59.881 22.123,59.881 C23.273,59.881 24.227,60.834 24.227,61.991 C24.227,63.155 23.273,64.1 22.123,64.1 L22.123,64.1 Z M22.123,64.1" id="bus--body-grey" fill="#67737B" sketch:type="MSShapeGroup"></path>
        <path d="M23.756,4 L8.244,4 C6.728,4 5.5,5.108 5.5,6.477 L5.5,23.381 C5.5,24.209 5.947,24.938 6.637,25.375 C6.617,25.938 6.689,26.471 6.689,26.731 L6.689,26.834 C6.689,28.031 7.68,29 8.902,29 C10.119,29 11.113,28.031 11.113,26.834 L11.113,26.731 C11.113,26.547 11.15,26.223 11.168,25.867 L20.957,25.867 C20.971,26.223 21.01,26.547 21.01,26.731 L21.01,26.834 C21.01,28.031 22.002,29 23.223,29 C24.445,29 25.436,28.031 25.436,26.834 L25.436,26.731 C25.436,26.459 25.523,25.887 25.486,25.293 C26.102,24.84 26.5,24.145 26.5,23.381 L26.5,6.477 C26.5,5.108 25.268,4 23.756,4 L23.756,4 L23.756,4 L23.756,4 Z M7.891,7.733 C7.891,7.051 8.504,6.5 9.262,6.5 L22.736,6.5 C23.492,6.5 24.107,7.051 24.107,7.733 L24.107,17.264 C24.107,17.944 23.492,18.506 22.736,18.506 L9.262,18.506 C8.504,18.506 7.891,17.944 7.891,17.264 L7.891,7.733 L7.891,7.733 L7.891,7.733 L7.891,7.733 Z M9.783,24.1 C8.621,24.1 7.684,23.155 7.684,21.991 C7.684,20.834 8.621,19.881 9.783,19.881 C10.951,19.881 11.887,20.834 11.887,21.991 C11.887,23.155 10.951,24.1 9.783,24.1 L9.783,24.1 L9.783,24.1 L9.783,24.1 Z M22.123,24.1 C20.957,24.1 20.014,23.155 20.014,21.991 C20.014,20.834 20.957,19.881 22.123,19.881 C23.273,19.881 24.227,20.834 24.227,21.991 C24.227,23.155 23.273,24.1 22.123,24.1 L22.123,24.1 Z M22.123,24.1" id="bus--title-grey" fill="#3A434E" sketch:type="MSShapeGroup"></path>
    </g>
</svg>
